X: 031
T: Lady Derbys Waltz
%R: waltz
Z: 2018 John Chambers <jc:trillian.mit.edu>
B: Bland and Weller "Country Dances for the Year 1798" p.3 #1
N: The first strain has only 7 bars.
M: 3/8
L: 1/16
K: Bb
% - - - - - - - - - - - - - - - - - - - - - - - - -
F2 |\
B2BcAc | B2BcAc | BABcde | c3edc |\
B2BcAc | BdceAc | B4 :: (3(BAB) |\
G2GBAB | F2FBAB |
G2GBAB | F3FGA |\
BABcde | fgfedc | B2BcAc | B4 :: !p!F2 |\
B2B2d2 | f2f2b2 | c2c2f2 | d2B2F2 |\
B2B2d2 |
f2f2b2 | c2c2f2 | B4 :: (3fga |\
bagfed | gfedcB | c2c2c2 | c4 (3fga |\
bagfed | gfedcB | c2cBcd | B4 :|
% - - - - - - - - - - - - - - - - - - - - - - - - -
%%begintext align
%%   First Lady go round the 2d Lady into the 2d Gent:s place, her
%% Partner following .| Back again .|. lead down the middle up again
%% :|. Allmand :|: swing Corners .:|:. the first Lady whole figure with
%% top Cu: while her Partner does the same with the Bottom Cu:
%%endtext
% - - - - - - - - - - - - - - - - - - - - - - - - -
